X:1
T:String Quartet No. 1
T:F. J. Haydn　Op.1 
T:Score
T:String Quartet No. 1
T:5th movement
C:F. J. Haydn　Op.1
%%score [ 1 2 3 4 ]
L:1/8
Q:1/4=132
M:2/4
K:Bb
V:1 treble nm="Violin I"
V:2 treble nm="Violin II"
V:3 alto nm="Viola"
V:4 bass nm="Cello"
V:1
!p!"^Presto" f3 (3(g/f/e/) | d3 (3(e/d/c/) | .B.A.B.c | .d.e.d.c | .B.A.G.F | PED z2 | z4 | %7
!f! (B/d/)(f/b/) (d'/b/)(a/b/) | c'2 z2 | (A/c/)(f/a/) (c'/a/)(g/a/) | b2 z2 | %11
 (G/B/)(=e/g/) (b/g/)(f/g/) | .a/(f/=e/f/) .b/(f/e/f/) | .c'/(f/=e/f/) .d/(f/e/f/) | %14
 .c/(f/=e/f/) .d/(f/e/f/) | (c/b/a/g/) Tg2 | f2 z2 | z4 | z!p! fff | (3(=e/f/g/)f ga | %20
 (3(g/a/b/)a z2 | z4 | z!f! ccc | (3(d/=e/f/)A (3(B/c/d/)G | (3(A/B/c/)F TG2 | %25
 (F/C/)(A,/C/) (F/C/)(A,/C/) | F2 z2 ::"^A" z4 | z4 | a4 | (a/b/)(a/b/) (c'/a/)(f/e/) | d2 z2 | %32
 z4 | b4 | (b/a/)(b/c'/) .d'/(f/e/d/) | e2 z2 | .F/(e/d/e/) .c'/(e/d/c/) | d2 z2 | %38
 .F/(d/c/d/) .b/(d/c/B/) | (A/B/c/d/) (e/c/)(d/B/) | c2 z2 |!p!"^B" f3 (3(g/f/e/) | d3 (3(e/d/c/) | %43
 .B.A.B.c | .d.e.d.c | .B.A.G.F | PED z2 | z4 |!f! (E/G/B/e/) .g/(e/d/e/) | f2 z2 | %50
 (B/d/f/b/) (d'/b/f/d/) | e2 z2 | (A,/C/)(F/A/) .c/(e/d/c/) | .d/(B/A/B/) .e/(B/A/B/) | %54
 .f/(B/A/B/) .g/(B/A/B/) | .f/(B/A/B/) .g/(B/A/B/) | (f/d/c/B/) Tc2 | B2 z2 | z4 | z!p! BBB | %60
 (3(A/B/c/)B cd | (3(c/d/e/)d z2 | z4 | z!f! fff | (3(g/a/b/)d (3(e/f/g/)c | (3(d/e/f/)B Tc2 | %66
 (B/F/)(D/F/) (B/F/)(D/F/) | B2 z2 :| %68
V:2
!p! d3 (3(e/d/c/) | B3 (3(G/F/E/) | .D.C.D.E | .F.G.F.E | .D.F.E.D | CB, z2 |!f! d3 (3(e/d/c/) | %7
 B2 z2 | c3 (3(d/c/B/) | A2 z2 | B3 (3(c/B/A/) | G2 z2 | F z F z | F z F z | F z F z | F f2 =e | %16
 f2 z2 |!p! c3 (3(f/=e/d/) | c2 z2 | z4 | z4 |!p! c3 (3(f/=e/d/) | c2 z2 |!f! d.A.B.G | A F2 =E | %25
 F2 [FA]2 | [FA]2 z2 ::!f! c3 (3(d/c/B/) | .A.B.c.d | (ec)(ec) | (ec) z2 | d3 (3(e/d/c/) | %32
 .B.c.d.e | (fd) (fd) | (fd) z2 | e3 (3(f/e/d/) | c2 z2 | d3 (3(e/d/c/) | B2 z2 | (F/G/A/B/) cB | %40
 A2 z2 |!p! d3 (3(e/d/c/) | B3 (3(G/F/E/) | .D.C.D.E | .F.G.F.E | .D.F.E.D | CB, z2 | %47
!f! g3 (3(_a/g/f/) | g2 z2 | f3 (3(g/f/e/) | d2 z2 | e3 (3(f/e/d/) | c2 z2 | B, z B, z | %54
 B, z B, z | B, z B, z | B, B2 A | B2 z2 |!p! F3 (3(B/A/G/) | F2 z2 | z4 | z4 | F3 (3(B/A/G/) | %63
 F2 z2 |!f! gdec | d B2 A | B2 [DB]2 | [DB]2 z2 :| %68
V:3
!p! BBBB | BBBB | B2 z2 | B2 z2 | B2 z2 | FB z2 |!f! F3 (3(G/F/E/) | D2 z2 | A3 (3(B/A/G/) | %9
 F2 z2 | G3 (3(A/G/F/ | =E2) z2 | FAGB | AcBd | AcBd | ABcC | F2 z2 |!p! A3 (3(d/c/B/) | A2 z2 | %19
 z4 | z4 |!p! A3 (3(d/c/B/) | A2 z2 |!f! BFGC | CDB,C | F2 F,2 | F,2 z2 ::!f! A3 (3(B/A/G/) | %28
 .F.G.A.B | (cA)(cA) | (cA) z2 | B3 (3(c/B/A/) | .B.A.B.c | (dB)(dB) | (dB) z2 | c3 (3(d/c/B/) | %36
 A2 z2 | F3 (3(G/F/E/) | D2 z2 | FFFF | F,2 z2 |!p! BBBB | !/!B4 | B2 z2 | B2 z2 | B2 z2 | FB z2 | %47
!f! e3 (3(f/e/d/) | e2 z2 | d3 (3(e/d/c/) | B2 z2 | c3 (3(d/c/B/) | A2 z2 | B,DCE | DFEG | DFEG | %56
 DEFF, | B,2 z2 |!p! D3 (3(G/F/E/ | D2) z2 | z4 | z4 | D3 (3(G/F/E/) | D2 z2 |!f! eBcF | FGEF | %66
 B,2 B,2 | B,2 z2 :| %68
V:4
!p! B,B,B,B, | B,B,B,B, | B,2 z2 | B,2 z2 | B,2 z2 | F,B, z2 |!f! B,B,B,B, | B,,2 z2 | F,F,F,F, | %9
 F,,2 z2 | C,C,C,C, | C,,2 z2 | F,F,G,G, | A,A,B,B, | A,A,B,B, | A,B,CC, | F,C, F,,2 | z4 | %18
 z!p! A,A,A, | B,A,G,F, | =E,F, z2 | z4 | z!f! A,A,A, | B,F,G,=E, | F,DB,C | F,2 F,,2 | F,,2 z2 :: %27
!f! F,F,F,F, | F,F,F,F, | F,F,F,F, | F,2 z2 | F,F,F,F, | F,F,F,F, | F,F,F,F, | F,2 z2 | F,F,F,F, | %36
 F,2 z2 | F,F,F,F, | F,2 z2 | F,F,F,F, | F,,2 z2 |!p! B,B,B,B, | !/!B,4 | B,2 z2 | B,2 z2 | %45
 B,2 z2 | F,B, z2 |!f! !/!B,,4 | B,,2 z2 | !/!B,,4 | B,,2 z2 | !/!F,4 | F,,2 z2 | B,,B,,C,C, | %54
 D,D,E,E, | D,D,E,E, | D,E,F,F,, | B,,F,, B,,2 | z4 | z!p! D,D,D, | E,D,C,B,, | A,,B,, z2 | z4 | %63
 z!f! DDD | EB,CA, | B,G,E,F, | B,,2 B,,2 | B,,2 z2 :| %68

